X:3350
L:1/8
Q:1/4=140
M:2/4
K:G
 D | GD/G/ BG/B/ | dB/d/ g2 | de/d/ cA | edBD | GD/G/ BG/B/ | dB/d/ g2 | de/d/ cF | AG G :| A | 
 B>cA>c | edBG | BcDF | AGGA | B>cA>c | edBG | BcDF | FG G :|[K:C] B | c>Bc>B | c>Bc>e | g>fdB | 
 ag e2 | c>Bc>B | c>Bc>e | g>fdB | dc c :| G | GcBc | dgfg | d_fef | dffe | GcBc | dgfg | dffd | 
 BA/B/ c :|

